assets/images/icons/youtube-icon.svg

<svg width="34" height="34" viewBox="0 0 34 34" fill="none" xmlns="http://www.w3.org/2000/svg">
<path d="M32.2903 2.88433C31.0775 0.835665 28.8382 0 24.5618 0H9.03798C4.66357 0 2.38636 0.889569 1.17806 3.07066C0 5.19726 0 8.33062 0 12.6673V20.9329C0 29.3343 1.39776 33.6 9.03798 33.6H24.5618C28.2703 33.6 30.3254 32.8627 31.6549 31.0547C33.0184 29.2007 33.6 26.1736 33.6 20.9329V12.6673C33.6 8.0939 33.5089 4.94207 32.2903 2.88433ZM21.5714 17.9412L14.522 23.1762C14.3644 23.2933 14.1921 23.3513 14.02 23.3513C13.8251 23.3513 13.6307 23.2768 13.4584 23.1286C13.1341 22.8494 12.9361 22.3499 12.9361 21.8112V11.3748C12.9361 10.837 13.1336 10.338 13.4572 10.0586C13.781 9.77925 14.1836 9.76016 14.5195 10.0081L21.5689 15.2094C21.9275 15.474 22.1527 16.0001 22.1532 16.5741C22.1537 17.1485 21.9295 17.6754 21.5714 17.9412Z" fill="#333333"/>
</svg>

<svg width="34" height="34" fill="none" xmlns="http://www.w3.org/2000/svg"><path d="M32.29 2.884C31.078.836 28.838 0 24.562 0H9.038c-4.374 0-6.652.89-7.86 3.07C0 5.198 0 8.33 0 12.668v8.266C0 29.334 1.398 33.6 9.038 33.6h15.524c3.708 0 5.763-.737 7.093-2.545C33.018 29.2 33.6 26.174 33.6 20.933v-8.266c0-4.573-.091-7.725-1.31-9.783zM21.571 17.941l-7.049 5.235a.838.838 0 0 1-.502.175.859.859 0 0 1-.562-.222c-.324-.28-.522-.78-.522-1.318V11.375c0-.538.198-1.037.521-1.316.324-.28.727-.299 1.063-.05l7.049 5.2c.358.265.584.791.584 1.365s-.223 1.101-.582 1.367z" fill="#333"/></svg>
